src/assets/img/react.svg

<svg width="35" height="31" viewBox="0 0 35 31" fill="none" xmlns="http://www.w3.org/2000/svg">
<g id="react.afac9c43724070bf6674f2692b7356a9.svg" clip-path="url(#clip0_1_48)">
<path id="Vector" d="M0.150125 15.4668C0.150125 18.0186 2.64198 20.4008 6.57041 21.7436C5.78592 25.6929 6.4299 28.8761 8.58058 30.1164C10.7912 31.3914 14.0845 30.5089 17.2104 27.7764C20.2574 30.3985 23.3368 31.4304 25.4856 30.1866C27.6942 28.908 28.3658 25.509 27.5596 21.4363C31.6514 20.0835 33.9402 18.0522 33.9402 15.4668C33.9402 12.9741 31.4438 10.8177 27.5683 9.48354C28.4362 5.24262 27.7008 2.13666 25.461 0.845115C23.3017 -0.400083 20.1864 0.685215 17.0947 3.37588C13.8781 0.520003 10.7937 -0.351874 8.55627 0.943259C6.39896 2.19204 5.7834 5.4332 6.57041 9.45552C2.77452 10.7789 0.150125 12.9842 0.150125 15.4668Z" fill="white"/>
<path id="Vector_2" d="M26.7475 10.8084C26.4281 10.6989 26.106 10.5974 25.7815 10.504C25.8353 10.2854 25.8851 10.0657 25.9307 9.84517C26.662 6.29551 26.1839 3.43591 24.5511 2.49458C22.9857 1.59175 20.4255 2.53309 17.8397 4.78324C17.585 5.00547 17.3358 5.2341 17.0926 5.46892C16.9297 5.31278 16.7639 5.15967 16.5953 5.00967C13.8854 2.60348 11.1691 1.58963 9.53811 2.53375C7.97418 3.4391 7.51095 6.12751 8.16927 9.49151C8.23477 9.82464 8.30872 10.1561 8.39106 10.4854C8.00672 10.5946 7.63552 10.7109 7.2804 10.8347C4.10339 11.9423 2.07436 13.6784 2.07436 15.479C2.07436 17.3388 4.2524 19.2042 7.56168 20.3352C7.83002 20.4265 8.10058 20.5111 8.37313 20.5889C8.28459 20.9437 8.20598 21.301 8.1374 21.6602C7.50975 24.9658 7.99994 27.5904 9.55976 28.4902C11.1708 29.4192 13.8748 28.4643 16.5078 26.1628C16.7159 25.9808 16.9248 25.7879 17.134 25.5856C17.3975 25.8398 17.668 26.0866 17.9452 26.3257C20.4956 28.5204 23.0144 29.4066 24.5729 28.5044C26.1825 27.5726 26.7055 24.753 26.0264 21.3225C25.9746 21.0605 25.9141 20.7929 25.8464 20.5203C26.0363 20.4643 26.2227 20.4064 26.4045 20.3461C29.8447 19.2063 32.0829 17.3636 32.0829 15.479C32.0829 13.6719 29.9885 11.9241 26.7475 10.8084Z" fill="#53C1DE"/>
<path id="Vector_3" d="M26.0013 19.1293C25.8372 19.1836 25.6688 19.2361 25.4973 19.2869C25.1174 18.0846 24.6048 16.8061 23.9777 15.4853C24.5762 14.1958 25.069 12.9337 25.4382 11.7391C25.7451 11.8281 26.0431 11.9217 26.3302 12.0207C29.1072 12.9765 30.801 14.3899 30.801 15.479C30.801 16.639 28.9715 18.1451 26.0013 19.1293ZM24.7688 21.5715C25.0691 23.0884 25.112 24.4599 24.913 25.5321C24.7343 26.4954 24.3749 27.1377 23.9305 27.3949C22.9848 27.9424 20.9623 27.2308 18.7813 25.354C18.5313 25.1388 18.2793 24.9091 18.0267 24.666C18.8723 23.7411 19.7174 22.6659 20.5421 21.472C21.9929 21.3433 23.3635 21.1328 24.6064 20.8456C24.6675 21.0926 24.7219 21.3347 24.7688 21.5715ZM12.3049 27.3004C11.3809 27.6267 10.6451 27.636 10.2003 27.3795C9.25364 26.8337 8.86027 24.726 9.39694 21.8992C9.46076 21.5652 9.53383 21.2329 9.61607 20.9029C10.8452 21.1748 12.2058 21.3704 13.66 21.4883C14.4902 22.6566 15.3597 23.7305 16.236 24.6709C16.0497 24.8511 15.8591 25.0266 15.6642 25.1974C14.4999 26.2152 13.3332 26.9371 12.305 27.3004H12.3049ZM7.97631 19.1221C6.51304 18.622 5.30463 17.972 4.47631 17.2628C3.73206 16.6254 3.35622 15.9925 3.35622 15.479C3.35622 14.3864 4.98536 12.9926 7.70246 12.0452C8.04349 11.9269 8.38792 11.8185 8.7353 11.7203C9.11088 12.9417 9.60346 14.2188 10.1979 15.5102C9.59575 16.8208 9.09613 18.1182 8.7171 19.354C8.46831 19.2828 8.2213 19.2055 7.97631 19.1221ZM9.42735 9.24527C8.86332 6.36296 9.23784 4.18878 10.1804 3.64321C11.1844 3.06204 13.4043 3.89076 15.7441 5.96826C15.8936 6.10107 16.0438 6.24011 16.1943 6.38394C15.3225 7.3201 14.461 8.38588 13.638 9.54741C12.2267 9.67822 10.8756 9.88832 9.6336 10.1697C9.5571 9.86332 9.48833 9.55515 9.42735 9.24527ZM22.3716 12.4415C22.0783 11.9348 21.774 11.4344 21.4591 10.9408C22.4167 11.0617 23.334 11.2224 24.1954 11.4191C23.9368 12.2479 23.6145 13.1146 23.2349 14.0031C22.9576 13.4769 22.6698 12.9563 22.3716 12.4415ZM17.093 7.30005C17.6842 7.94057 18.2764 8.65587 18.8589 9.43186C17.6773 9.37603 16.4938 9.37576 15.3122 9.43107C15.8952 8.66225 16.4924 7.94801 17.093 7.30005ZM11.7804 12.4503C11.486 12.9609 11.2036 13.4783 10.9334 14.0021C10.5601 13.1167 10.2407 12.2462 9.97983 11.4055C10.836 11.2139 11.7491 11.0573 12.7004 10.9384C12.3819 11.4351 12.0752 11.9392 11.7804 12.4503ZM12.7277 20.111C11.745 20.0013 10.8181 19.8527 9.96217 19.6664C10.2271 18.8108 10.5536 17.9215 10.9348 17.0171C11.2062 17.5413 11.4899 18.0591 11.7856 18.5699C12.0874 19.091 12.4015 19.6049 12.7277 20.111ZM17.1284 23.7485C16.5208 23.0928 15.9148 22.3677 15.3229 21.5877C15.8974 21.6103 16.4833 21.6217 17.0786 21.6217C17.6903 21.6217 18.295 21.608 18.8901 21.5814C18.3058 22.3756 17.7157 23.1018 17.1284 23.7485ZM23.2471 16.971C23.6482 17.8853 23.9863 18.7698 24.2549 19.6109C23.3847 19.8094 22.4454 19.9693 21.4555 20.088C21.7727 19.5852 22.0799 19.0761 22.3768 18.561C22.6787 18.0375 22.9689 17.5074 23.2471 16.971ZM21.2663 17.9206C20.8117 18.7103 20.3316 19.485 19.8267 20.2434C18.9363 20.307 18.0162 20.3398 17.0786 20.3398C16.1449 20.3398 15.2365 20.3107 14.3617 20.254C13.8436 19.4973 13.3544 18.7213 12.8951 17.9277C12.4379 17.1382 12.0108 16.3316 11.6148 15.5098C12.0098 14.6877 12.4356 13.8807 12.8912 13.0906V13.0908C13.3467 12.3005 13.8321 11.5278 14.3463 10.7744C15.2387 10.7069 16.1538 10.6716 17.0788 10.6716C18.0079 10.6716 18.9241 10.7072 19.8163 10.7752C20.3253 11.5275 20.8075 12.2975 21.2622 13.0838C21.7194 13.8721 22.1509 14.6752 22.5559 15.4916C22.155 16.3163 21.7248 17.1265 21.2663 17.9206ZM23.9109 3.60509C24.9157 4.18466 25.3066 6.52167 24.6752 9.58645C24.6338 9.7861 24.5888 9.98499 24.5403 10.183C23.2953 9.89576 21.9433 9.68194 20.5279 9.54913C19.7033 8.37499 18.8489 7.30735 17.9913 6.38328C18.216 6.16661 18.4461 5.95556 18.6813 5.75032C20.8968 3.82223 22.9674 3.06098 23.9109 3.60509Z" fill="white"/>
<path id="Vector_4" d="M17.0786 12.7993C18.5586 12.7993 19.7583 13.9991 19.7583 15.479C19.7583 16.959 18.5586 18.1587 17.0786 18.1587C15.5988 18.1587 14.399 16.959 14.399 15.479C14.399 13.9991 15.5988 12.7993 17.0786 12.7993Z" fill="#53C1DE"/>
</g>
<defs>
<clipPath id="clip0_1_48">
<rect width="34" height="30.5456" fill="white" transform="translate(0.0499878 0.227173)"/>
</clipPath>
</defs>
</svg>

<svg xmlns="http://www.w3.org/2000/svg" width="35" height="31" fill="none"><g clip-path="url(#a)"><path fill="#fff" d="M.15 15.467c0 2.552 2.492 4.934 6.42 6.277-.784 3.949-.14 7.132 2.01 8.372 2.211 1.275 5.505.393 8.63-2.34 3.047 2.622 6.127 3.654 8.276 2.41 2.208-1.278 2.88-4.677 2.074-8.75 4.091-1.352 6.38-3.384 6.38-5.97 0-2.492-2.496-4.648-6.372-5.982.868-4.241.133-7.347-2.107-8.639-2.16-1.245-5.275-.16-8.366 2.53C13.878.52 10.794-.351 8.556.944 6.4 2.192 5.783 5.433 6.57 9.456 2.775 10.779.15 12.984.15 15.466Z"/><path fill="#53C1DE" d="M26.747 10.808a20.25 20.25 0 0 0-.965-.304c.053-.219.103-.438.149-.659.731-3.55.253-6.41-1.38-7.35-1.565-.903-4.125.038-6.711 2.288-.255.222-.504.451-.747.686-.163-.156-.33-.31-.498-.46-2.71-2.406-5.426-3.42-7.057-2.475-1.564.905-2.027 3.594-1.369 6.958.066.333.14.664.222.993-.384.11-.755.226-1.11.35-3.178 1.107-5.207 2.843-5.207 4.644 0 1.86 2.178 3.725 5.488 4.856.268.091.539.176.811.254-.088.355-.167.712-.236 1.071C7.51 24.966 8 27.59 9.56 28.49c1.61.93 4.315-.026 6.948-2.327.208-.182.417-.375.626-.577.264.254.534.5.811.74 2.55 2.194 5.07 3.08 6.628 2.178 1.61-.931 2.133-3.751 1.453-7.181-.051-.262-.112-.53-.18-.803.19-.056.377-.114.558-.174 3.44-1.14 5.679-2.982 5.679-4.867 0-1.807-2.095-3.555-5.335-4.67Z"/><path fill="#fff" d="M26.001 19.13a16.75 16.75 0 0 1-.504.157 30.104 30.104 0 0 0-1.52-3.802 30.08 30.08 0 0 0 1.461-3.746c.307.09.605.183.892.282 2.777.955 4.471 2.369 4.471 3.458 0 1.16-1.83 2.666-4.8 3.65Zm-1.232 2.442c.3 1.516.343 2.888.144 3.96-.179.963-.538 1.606-.983 1.863-.945.547-2.968-.164-5.149-2.041-.25-.215-.502-.445-.754-.688.845-.925 1.69-2 2.515-3.194 1.45-.129 2.821-.34 4.064-.626.061.247.116.489.163.726ZM12.305 27.3c-.924.327-1.66.336-2.105.08-.946-.546-1.34-2.654-.803-5.48.064-.335.137-.667.22-.997 1.228.272 2.589.467 4.043.585.83 1.169 1.7 2.242 2.576 3.183-.186.18-.377.356-.572.526-1.164 1.018-2.33 1.74-3.359 2.103Zm-4.329-8.178c-1.463-.5-2.671-1.15-3.5-1.86-.744-.637-1.12-1.27-1.12-1.783 0-1.093 1.63-2.486 4.346-3.434.341-.118.686-.226 1.033-.325a30.746 30.746 0 0 0 1.463 3.79 31.204 31.204 0 0 0-1.48 3.844 15.72 15.72 0 0 1-.742-.232Zm1.451-9.877c-.564-2.882-.19-5.056.753-5.602 1.004-.581 3.224.248 5.564 2.325.15.133.3.272.45.416a30.713 30.713 0 0 0-2.556 3.163 31.33 31.33 0 0 0-4.004.623 18.799 18.799 0 0 1-.207-.925Zm12.945 3.197a40.708 40.708 0 0 0-.913-1.501c.958.12 1.875.281 2.736.478a27.35 27.35 0 0 1-.96 2.584 44.584 44.584 0 0 0-.863-1.562ZM17.093 7.3c.591.64 1.183 1.356 1.766 2.132a37.748 37.748 0 0 0-3.547 0A28.253 28.253 0 0 1 17.093 7.3Zm-5.313 5.15a37.8 37.8 0 0 0-.847 1.552 28.302 28.302 0 0 1-.953-2.597c.856-.191 1.77-.348 2.72-.467-.318.497-.625 1.001-.92 1.512Zm.948 7.661c-.983-.11-1.91-.258-2.766-.445.265-.855.592-1.744.973-2.649a37.664 37.664 0 0 0 1.793 3.094Zm4.4 3.637a28.809 28.809 0 0 1-1.805-2.16c.574.022 1.16.034 1.756.034.611 0 1.216-.014 1.811-.04a27.255 27.255 0 0 1-1.762 2.166Zm6.12-6.777c.4.914.738 1.799 1.007 2.64-.87.198-1.81.358-2.8.477a44.67 44.67 0 0 0 .922-1.527c.302-.523.592-1.054.87-1.59Zm-1.982.95a42.03 42.03 0 0 1-1.44 2.322c-.89.064-1.81.097-2.747.097-.934 0-1.843-.03-2.717-.086a36.327 36.327 0 0 1-2.747-4.744 35.988 35.988 0 0 1 2.731-4.735 36.301 36.301 0 0 1 5.47 0 38.62 38.62 0 0 1 1.446 2.309 42.02 42.02 0 0 1 1.294 2.408c-.401.824-.831 1.634-1.29 2.429Zm2.645-14.316c1.005.58 1.396 2.917.764 5.981-.041.2-.086.399-.135.597a30.718 30.718 0 0 0-4.012-.634 30.124 30.124 0 0 0-2.537-3.166c.225-.216.455-.427.69-.633 2.216-1.928 4.286-2.689 5.23-2.145Z"/><path fill="#53C1DE" d="M17.079 12.8a2.68 2.68 0 1 1 0 5.359 2.68 2.68 0 0 1 0-5.36Z"/></g><defs><clipPath id="a"><path fill="#fff" d="M.05.227h34v30.546h-34z"/></clipPath></defs></svg>
